public/logos/aws-mono.svg

<svg width="256" height="256" viewBox="0 0 256 256" fill="none" xmlns="http://www.w3.org/2000/svg">
  <path d="M80.6876 114.54C80.6876 117.234 80.9789 119.418 81.4885 121.02C82.0709 122.622 82.7989 124.369 83.8182 126.262C84.1822 126.844 84.3278 127.427 84.3278 127.936C84.3278 128.664 83.891 129.392 82.9445 130.12L78.3579 133.178C77.7027 133.615 77.0475 133.833 76.4651 133.833C75.737 133.833 75.009 133.469 74.281 132.814C73.2617 131.722 72.3881 130.557 71.6601 129.392C70.932 128.155 70.204 126.771 69.4032 125.097C63.7245 131.795 56.5898 135.144 47.9991 135.144C41.8836 135.144 37.0058 133.396 33.4385 129.902C29.8711 126.407 28.051 121.748 28.051 115.924C28.051 109.735 30.2351 104.712 34.6761 100.926C39.1171 97.1405 45.0141 95.2476 52.5129 95.2476C54.9882 95.2476 57.5363 95.466 60.23 95.83C62.9237 96.194 65.6902 96.7765 68.6023 97.4317V92.1171C68.6023 86.584 67.4375 82.7255 65.1806 80.4686C62.8509 78.2117 58.9195 77.1196 53.3137 77.1196C50.7656 77.1196 48.1447 77.4108 45.451 78.0661C42.7572 78.7213 40.1363 79.5221 37.5882 80.5414C36.4234 81.051 35.5497 81.3422 35.0401 81.4878C34.5305 81.6334 34.1665 81.7062 33.8753 81.7062C32.856 81.7062 32.3464 80.9782 32.3464 79.4493V75.882C32.3464 74.7171 32.492 73.8435 32.856 73.3339C33.22 72.8242 33.8753 72.3146 34.8945 71.805C37.4426 70.4945 40.5003 69.4025 44.0677 68.5289C47.635 67.5824 51.4208 67.1456 55.425 67.1456C64.0885 67.1456 70.4224 69.1113 74.4994 73.0427C78.5036 76.974 80.542 82.9439 80.542 90.9522V114.54H80.6876ZM51.1296 125.606C53.5321 125.606 56.0074 125.17 58.6283 124.296C61.2492 123.422 63.5789 121.821 65.5446 119.637C66.7095 118.253 67.5831 116.724 68.0199 114.977C68.4567 113.23 68.7479 111.119 68.7479 108.643V105.586C66.6367 105.076 64.3798 104.639 62.0501 104.348C59.7204 104.057 57.4635 103.911 55.2066 103.911C50.3288 103.911 46.7614 104.858 44.3589 106.823C41.9564 108.789 40.7916 111.555 40.7916 115.196C40.7916 118.617 41.6652 121.165 43.4853 122.913C45.2325 124.733 47.7807 125.606 51.1296 125.606ZM109.59 133.469C108.28 133.469 107.406 133.251 106.824 132.741C106.242 132.304 105.732 131.285 105.295 129.902L88.1864 73.6251C87.7495 72.169 87.5311 71.2226 87.5311 70.713C87.5311 69.5481 88.1136 68.8929 89.2784 68.8929H96.4131C97.7964 68.8929 98.7428 69.1113 99.2524 69.6209C99.8349 70.0577 100.272 71.077 100.708 72.4602L112.939 120.656L124.297 72.4602C124.661 71.0042 125.098 70.0577 125.68 69.6209C126.262 69.1841 127.282 68.8929 128.592 68.8929H134.416C135.8 68.8929 136.746 69.1113 137.328 69.6209C137.911 70.0577 138.42 71.077 138.712 72.4602L150.215 121.238L162.809 72.4602C163.246 71.0042 163.756 70.0577 164.266 69.6209C164.848 69.1841 165.794 68.8929 167.105 68.8929H173.876C175.04 68.8929 175.696 69.4753 175.696 70.713C175.696 71.077 175.623 71.441 175.55 71.8778C175.477 72.3146 175.332 72.897 175.04 73.6979L157.495 129.975C157.058 131.431 156.548 132.377 155.966 132.814C155.384 133.251 154.437 133.542 153.199 133.542H146.938C145.555 133.542 144.609 133.324 144.026 132.814C143.444 132.304 142.934 131.358 142.643 129.902L131.359 82.9439L120.147 129.829C119.783 131.285 119.346 132.232 118.764 132.741C118.181 133.251 117.162 133.469 115.852 133.469H109.59ZM203.142 135.435C199.357 135.435 195.571 134.998 191.931 134.124C188.291 133.251 185.451 132.304 183.558 131.212C182.394 130.557 181.593 129.829 181.301 129.174C181.01 128.519 180.865 127.791 180.865 127.135V123.422C180.865 121.894 181.447 121.165 182.539 121.165C182.976 121.165 183.413 121.238 183.85 121.384C184.286 121.53 184.942 121.821 185.67 122.112C188.145 123.204 190.839 124.078 193.678 124.66C196.59 125.242 199.429 125.534 202.342 125.534C206.928 125.534 210.496 124.733 212.971 123.131C215.446 121.529 216.757 119.2 216.757 116.215C216.757 114.176 216.101 112.502 214.791 111.119C213.48 109.735 211.005 108.498 207.438 107.333L196.881 104.057C191.567 102.382 187.635 99.907 185.233 96.6308C182.83 93.4275 181.593 89.8602 181.593 86.0744C181.593 83.0167 182.248 80.323 183.558 77.9933C184.869 75.6636 186.616 73.6251 188.8 72.0234C190.984 70.3489 193.46 69.1113 196.372 68.2377C199.284 67.364 202.342 67 205.545 67C207.147 67 208.821 67.0728 210.423 67.2912C212.097 67.5096 213.626 67.8008 215.155 68.092C216.611 68.4561 217.994 68.8201 219.305 69.2569C220.615 69.6937 221.634 70.1305 222.362 70.5674C223.382 71.1498 224.11 71.7322 224.547 72.3874C224.983 72.9699 225.202 73.7707 225.202 74.7899V78.2117C225.202 79.7405 224.619 80.5414 223.527 80.5414C222.945 80.5414 221.998 80.2502 220.761 79.6677C216.611 77.7749 211.952 76.8284 206.783 76.8284C202.633 76.8284 199.357 77.4836 197.1 78.8669C194.843 80.2502 193.678 82.3614 193.678 85.3464C193.678 87.3849 194.406 89.1321 195.862 90.5154C197.318 91.8987 200.012 93.2819 203.87 94.5196L214.208 97.7957C219.45 99.4702 223.236 101.8 225.493 104.785C227.75 107.77 228.842 111.191 228.842 114.977C228.842 118.108 228.187 120.947 226.949 123.422C225.639 125.898 223.891 128.082 221.634 129.829C219.377 131.649 216.684 132.96 213.553 133.906C210.277 134.925 206.855 135.435 203.142 135.435Z" fill="currentColor" />
  <path fill-rule="evenodd" clip-rule="evenodd" d="M216.902 170.817C192.95 188.508 158.15 197.899 128.228 197.899C86.2933 197.899 48.5086 182.392 19.9697 156.62C17.7129 154.582 19.7513 151.815 22.4451 153.417C53.3136 171.326 91.3896 182.174 130.776 182.174C157.349 182.174 186.543 176.641 213.408 165.284C217.412 163.464 220.833 167.905 216.902 170.817Z" fill="currentColor" />
  <path fill-rule="evenodd" clip-rule="evenodd" d="M226.876 159.46C223.818 155.528 206.637 157.567 198.847 158.513C196.517 158.805 196.153 156.766 198.264 155.237C211.951 145.627 234.447 148.394 237.068 151.597C239.689 154.873 236.34 177.369 223.527 188.144C221.561 189.819 219.668 188.945 220.542 186.761C223.454 179.553 229.934 163.318 226.876 159.46Z" fill="currentColor" />
</svg>

<svg width="256" height="256" viewBox="0 0 256 256" fill="none" xmlns="http://www.w3.org/2000/svg">
  <path d="M80.688 114.54c0 2.694.29 4.878.8 6.48a38.948 38.948 0 0 0 2.33 5.242c.364.582.51 1.165.51 1.674 0 .728-.437 1.456-1.383 2.184l-4.587 3.058c-.655.437-1.31.655-1.893.655-.728 0-1.456-.364-2.184-1.019a22.51 22.51 0 0 1-2.62-3.422c-.729-1.237-1.457-2.621-2.258-4.295-5.679 6.698-12.813 10.047-21.404 10.047-6.115 0-10.993-1.748-14.56-5.242-3.568-3.495-5.388-8.154-5.388-13.978 0-6.189 2.184-11.212 6.625-14.998 4.441-3.785 10.338-5.678 17.837-5.678 2.475 0 5.023.218 7.717.582s5.46.947 8.372 1.602v-5.315c0-5.533-1.165-9.392-3.421-11.648-2.33-2.257-6.261-3.35-11.867-3.35a33.12 33.12 0 0 0-7.863.947c-2.694.655-5.315 1.456-7.863 2.475-1.165.51-2.038.801-2.548.947-.51.145-.873.218-1.165.218-1.019 0-1.529-.728-1.529-2.257v-3.567c0-1.165.146-2.038.51-2.548.364-.51 1.02-1.02 2.038-1.529 2.549-1.31 5.606-2.403 9.174-3.276 3.567-.947 7.353-1.383 11.357-1.383 8.663 0 14.997 1.965 19.074 5.897 4.005 3.931 6.043 9.9 6.043 17.91v23.587h.146ZM51.13 125.606c2.402 0 4.877-.436 7.498-1.31 2.621-.874 4.95-2.475 6.917-4.659 1.165-1.384 2.038-2.913 2.475-4.66.437-1.747.728-3.858.728-6.334v-3.057a60.654 60.654 0 0 0-6.698-1.238 54.9 54.9 0 0 0-6.843-.437c-4.878 0-8.446.947-10.848 2.912-2.403 1.966-3.567 4.732-3.567 8.373 0 3.421.873 5.969 2.693 7.717 1.748 1.82 4.296 2.693 7.645 2.693Zm58.46 7.863c-1.31 0-2.184-.218-2.766-.728-.582-.437-1.092-1.456-1.529-2.839L88.186 73.625c-.437-1.456-.655-2.402-.655-2.912 0-1.165.583-1.82 1.747-1.82h7.135c1.383 0 2.33.218 2.84.728.582.437 1.019 1.456 1.455 2.84l12.231 48.195 11.358-48.196c.364-1.456.801-2.402 1.383-2.84.582-.436 1.602-.727 2.912-.727h5.824c1.384 0 2.33.218 2.912.728.583.437 1.092 1.456 1.384 2.84l11.503 48.777 12.594-48.778c.437-1.456.947-2.402 1.457-2.84.582-.436 1.528-.727 2.839-.727h6.771c1.164 0 1.82.582 1.82 1.82 0 .364-.073.728-.146 1.165-.073.437-.218 1.019-.51 1.82l-17.545 56.277c-.437 1.456-.947 2.402-1.529 2.839-.582.437-1.529.728-2.767.728h-6.261c-1.383 0-2.329-.218-2.912-.728-.582-.51-1.092-1.456-1.383-2.912l-11.284-46.958-11.212 46.885c-.364 1.456-.801 2.403-1.383 2.912-.583.51-1.602.728-2.912.728h-6.262Zm93.552 1.966c-3.785 0-7.571-.437-11.211-1.311-3.64-.873-6.48-1.82-8.373-2.912-1.164-.655-1.965-1.383-2.257-2.038a5.14 5.14 0 0 1-.436-2.039v-3.713c0-1.528.582-2.257 1.674-2.257.437 0 .874.073 1.311.219.436.146 1.092.437 1.82.728a39.573 39.573 0 0 0 8.008 2.548 43.75 43.75 0 0 0 8.664.874c4.586 0 8.154-.801 10.629-2.403 2.475-1.602 3.786-3.931 3.786-6.916 0-2.039-.656-3.713-1.966-5.096-1.311-1.384-3.786-2.621-7.353-3.786l-10.557-3.276c-5.314-1.675-9.246-4.15-11.648-7.426-2.403-3.204-3.64-6.77-3.64-10.557 0-3.057.655-5.751 1.965-8.08 1.311-2.33 3.058-4.369 5.242-5.97 2.184-1.675 4.66-2.913 7.572-3.786 2.912-.874 5.97-1.238 9.173-1.238 1.602 0 3.276.073 4.878.291 1.674.219 3.203.51 4.732.801 1.456.364 2.839.728 4.15 1.165 1.31.437 2.329.873 3.057 1.31 1.02.583 1.748 1.165 2.185 1.82.436.583.655 1.384.655 2.403v3.422c0 1.528-.583 2.33-1.675 2.33-.582 0-1.529-.292-2.766-.874-4.15-1.893-8.809-2.84-13.978-2.84-4.15 0-7.426.656-9.683 2.039-2.257 1.383-3.422 3.494-3.422 6.48 0 2.038.728 3.785 2.184 5.168 1.456 1.384 4.15 2.767 8.008 4.005l10.338 3.276c5.242 1.674 9.028 4.004 11.285 6.989 2.257 2.985 3.349 6.406 3.349 10.192 0 3.131-.655 5.97-1.893 8.445-1.31 2.476-3.058 4.66-5.315 6.407-2.257 1.82-4.95 3.131-8.081 4.077-3.276 1.019-6.698 1.529-10.411 1.529Z" fill="currentColor"/>
  <path fill-rule="evenodd" clip-rule="evenodd" d="M216.902 170.817c-23.952 17.691-58.752 27.082-88.674 27.082-41.935 0-79.72-15.507-108.258-41.279-2.257-2.038-.219-4.805 2.475-3.203 30.869 17.909 68.945 28.757 108.331 28.757 26.573 0 55.767-5.533 82.632-16.89 4.004-1.82 7.425 2.621 3.494 5.533Z" fill="currentColor"/>
  <path fill-rule="evenodd" clip-rule="evenodd" d="M226.876 159.46c-3.058-3.932-20.239-1.893-28.029-.947-2.33.292-2.694-1.747-.583-3.276 13.687-9.61 36.183-6.843 38.804-3.64 2.621 3.276-.728 25.772-13.541 36.547-1.966 1.675-3.859.801-2.985-1.383 2.912-7.208 9.392-23.443 6.334-27.301Z" fill="currentColor"/>
</svg>
